src/assets/icons/category_GamesBooks.svg

<?xml version="1.0" encoding="UTF-8" standalone="no"?>
<svg width="38px" height="38px" viewBox="0 0 38 38" version="1.1" xmlns="http://www.w3.org/2000/svg" xmlns:xlink="http://www.w3.org/1999/xlink">
    <!-- Generator: sketchtool 41.2 (35397) - http://www.bohemiancoding.com/sketch -->
    <title>765D4136-C6D4-4652-8535-92CE2FB7D0A2</title>
    <desc>Created with sketchtool.</desc>
    <defs></defs>
    <g id="Nav" stroke="none" stroke-width="1" fill="none" fill-rule="evenodd">
        <g id="Categories_Selected_Mobile-" transform="translate(-80.000000, -446.000000)" fill="#AEAEAE">
            <path d="M90.9583333,454.687258 L90.9583333,475.287216 L88.5833333,475.303841 L88.5667083,454.703883 L90.9583333,454.687258 Z M95.7574167,454.567716 L97.2853333,475.110675 L94.9174583,475.303841 L93.3737083,454.761675 L95.7574167,454.567716 Z M101.356875,457.70905 L103.605208,474.980841 L101.252375,475.303841 L98.9874167,458.035216 L101.356875,457.70905 Z M106.585833,464.770716 L109.856208,474.5288 L107.609458,475.299091 L104.324042,465.545758 L106.585833,464.770716 Z M88.5667083,476.87055 L90.9749583,476.87055 C91.8386667,476.87055 92.5416667,476.16755 92.5416667,475.303841 L92.5416667,464.699466 L93.338875,475.421008 C93.36975,475.838216 93.5613333,476.218216 93.8787917,476.491341 C94.165375,476.739133 94.524,476.872133 94.89925,476.872133 C94.9380417,476.872133 94.9784167,476.87055 95.0172083,476.867383 L97.419125,476.688466 C97.8363333,476.657591 98.2163333,476.466008 98.49025,476.14855 C98.7625833,475.831883 98.896375,475.427341 98.8655,475.010133 L97.86325,461.535175 L99.6825,475.508091 C99.7363333,475.922925 99.9485,476.292633 100.280208,476.54755 C100.557292,476.760508 100.889,476.872133 101.232583,476.872133 C101.300667,476.872133 101.369542,476.868175 101.437625,476.859466 L103.825292,476.548341 C104.240917,476.494508 104.609833,476.282341 104.865542,475.950633 C105.120458,475.618925 105.231292,475.207258 105.177458,474.792425 L104.801417,471.90205 L106.108458,475.8018 C106.32775,476.456508 106.939708,476.87055 107.595208,476.87055 C107.759875,476.87055 107.926917,476.845216 108.091583,476.7898 L110.37475,476.02505 C111.194125,475.750341 111.637458,474.860508 111.36275,474.041133 L108.087625,464.267216 C107.812917,463.448633 106.923875,463.003716 106.103708,463.280008 L103.821333,464.044758 C103.807083,464.049508 103.794417,464.057425 103.780167,464.062966 L102.92675,457.505591 C102.815125,456.649008 102.023458,456.042591 101.170833,456.154216 L98.7831667,456.46455 C98.2187083,456.538175 97.76825,456.907091 97.5552917,457.393966 L97.336,454.449758 C97.2710833,453.589216 96.5324583,452.941633 95.6576667,453.004175 L93.25575,453.183091 C92.8290417,453.214758 92.455375,453.416633 92.194125,453.715091 C91.90675,453.355675 91.46975,453.12055 90.9749583,453.12055 L88.5667083,453.12055 C87.703,453.12055 87,453.82355 87,454.687258 L87,475.303841 C87,476.16755 87.703,476.87055 88.5667083,476.87055 L88.5667083,476.87055 Z" id="Fill-32"></path>
        </g>
    </g>
</svg>

<svg width="38" height="38" viewBox="0 0 38 38" xmlns="http://www.w3.org/2000/svg"><g id="Nav" fill="none" fill-rule="evenodd"><g id="Categories_Selected_Mobile-" transform="translate(-80 -446)" fill="#AEAEAE"><path d="M90.958 454.687v20.6l-2.375.017-.016-20.6 2.391-.017zm4.8-.12l1.527 20.544-2.368.193-1.543-20.542 2.383-.194zm5.599 3.142l2.248 17.272-2.353.323-2.265-17.269 2.37-.326zm5.229 7.062l3.27 9.758-2.247.77-3.285-9.753 2.262-.775zm-18.02 12.1h2.409c.864 0 1.567-.703 1.567-1.567v-10.605l.797 10.722c.03.417.222.797.54 1.07a1.552 1.552 0 0 0 1.138.376l2.402-.179c.417-.03.797-.222 1.071-.54a1.56 1.56 0 0 0 .376-1.138l-1.003-13.475 1.82 13.973c.053.415.265.785.597 1.04a1.555 1.555 0 0 0 1.158.311l2.387-.31a1.557 1.557 0 0 0 1.04-.598 1.56 1.56 0 0 0 .312-1.159l-.376-2.89 1.307 3.9a1.569 1.569 0 0 0 1.984.988l2.283-.765a1.569 1.569 0 0 0 .988-1.984l-3.275-9.774a1.567 1.567 0 0 0-1.984-.987l-2.283.765c-.014.005-.027.012-.04.018l-.854-6.557a1.57 1.57 0 0 0-1.756-1.352l-2.388.31a1.56 1.56 0 0 0-1.228.93l-.219-2.944a1.562 1.562 0 0 0-1.678-1.446l-2.402.18c-.427.03-.8.233-1.062.531a1.559 1.559 0 0 0-1.219-.594h-2.408c-.864 0-1.567.703-1.567 1.566v20.617c0 .864.703 1.567 1.567 1.567z" id="Fill-32"/></g></g></svg>
